logo/light.svg

<svg width="432" height="128" viewBox="0 0 432 128" fill="none" xmlns="http://www.w3.org/2000/svg">
<path d="M404.68 62.6799V116.24H417V57.1099L404.68 62.6799Z" fill="white"/>
<path d="M384.27 100.04C384.27 105.21 380.99 108.14 375.13 108.14C372.2 108.14 370.82 107.02 370.82 105.04C370.82 103.4 371.94 102.19 375.3 100.82L384.26 97.1099V100.04H384.27ZM400.21 116.24V106.42H397.71C396.16 106.42 395.47 105.82 395.47 103.92V89.4399C395.47 78.8399 389.26 73.1499 378.58 73.1499C369.53 73.1499 362.55 77.3699 358.33 81.9399L364.54 90.8999C367.47 86.6799 372.38 83.6599 377.72 83.6599C382.37 83.6599 384.01 85.6399 384.44 89.1799L371.51 94.0099C363.5 96.7699 359.45 100.47 359.45 106.85C359.45 113.66 364.02 117.19 370.57 117.19C379.19 117.19 382.89 110.81 384.27 105.3V108.14C384.27 114.17 388.41 116.24 392.97 116.24H400.21Z" fill="white"/>
<path d="M356.74 114C355.14 112.29 354.21 109.9 354.21 106.85C354.21 105.34 354.44 103.98 354.9 102.75C353.55 104.63 351.55 106.16 349.3 106.16C346.89 106.16 345.16 104.95 345.16 101.51V83.4101H354.1V74.0201H345.16V62.5601L332.84 69.0201V74.0201H326.55V83.4101H332.84V103.75C332.84 111.59 337.23 117.11 346.54 117.11C351.01 117.11 354.45 115.67 356.74 114.01" fill="white"/>
<path d="M295.78 95.1299C295.78 87.3699 299.4 83.4099 304.83 83.4099C310.26 83.4099 312.76 86.5999 313.79 91.8599L324.05 85.9099C321.46 78.6699 314.48 73.1499 304.4 73.1499C291.39 73.1499 283.2 82.2799 283.2 95.1299C283.2 107.98 291.39 117.11 304.4 117.11C314.48 117.11 321.46 111.59 324.05 104.35L313.79 98.3999C312.76 103.66 310.08 106.85 304.83 106.85C299.58 106.85 295.78 102.89 295.78 95.1299Z" fill="white"/>
<path d="M264.94 100.04C264.94 105.21 261.66 108.14 255.81 108.14C252.88 108.14 251.5 107.02 251.5 105.04C251.5 103.4 252.62 102.19 255.98 100.82L264.94 97.1099V100.04ZM280.88 116.24V106.42H278.38C276.83 106.42 276.14 105.82 276.14 103.92V89.4399C276.14 78.8399 269.93 73.1499 259.25 73.1499C253.44 73.1499 248.49 74.8999 244.56 77.3499C245.54 79.0399 246.06 81.1899 246.06 83.7499C246.06 86.3099 245.58 88.7699 244.98 90.5899L245.2 90.9099C248.13 86.6899 253.04 83.6699 258.38 83.6699C263.03 83.6699 264.67 85.6499 265.1 89.1899L252.17 94.0199C244.16 96.7799 240.11 100.48 240.11 106.86C240.11 113.67 244.68 117.2 251.23 117.2C259.85 117.2 263.55 110.82 264.93 105.31V108.15C264.93 114.18 269.07 116.25 273.63 116.25H280.87L280.88 116.24Z" fill="white"/>
<path d="M238.87 93.5802C239.9 91.9402 241.28 88.3202 241.28 83.7602C241.28 77.1202 237.83 73.1602 231.63 73.1602C223.53 73.1602 219.39 80.2302 218.01 87.2902V74.0201L205.69 80.2802V116.24H218.01V93.9202C218.01 86.9402 221.97 82.3702 226.2 82.3702C228.87 82.3702 229.99 84.1801 229.99 86.5901C229.99 89.0001 228.53 92.0202 226.97 93.5702H238.86L238.87 93.5802Z" fill="white"/>
<path d="M200 71.2602L204.22 62.4702C202.24 60.7502 199.54 58.3202 193.98 57.6402C181.71 56.1402 177.31 64.4002 177.08 79.2402V80.2702H171.22V89.6602H177.08V116.23H189.4V89.6602H200V80.2702H189.4V72.2002C189.4 69.4402 190.69 67.8102 193.62 67.8102C196.2 67.8102 198.45 69.3602 200 71.2602Z" fill="white"/>
<path d="M112.84 76.8701H140.06V55.8701H112.84C95.4899 55.8701 81.3799 69.9801 81.3799 87.3301V117.18H102.38V87.3301C102.38 81.5601 107.07 76.8701 112.84 76.8701Z" fill="white"/>
<path d="M41.67 76.8701H68.89V55.8701H41.67C24.32 55.8701 10.21 69.9801 10.21 87.3301V117.18H31.21V87.3301C31.21 81.5601 35.9 76.8701 41.67 76.8701Z" fill="white"/>
<path d="M41.67 29.79H68.89V8.79004H41.67C24.32 8.79004 10.21 22.9 10.21 40.25V46.73H31.21V40.25C31.21 34.48 35.9 29.79 41.67 29.79Z" fill="white"/>
</svg>

<?xml version="1.0" encoding="UTF-8"?><svg id="Layer_1" xmlns="http://www.w3.org/2000/svg" viewBox="0 0 432 128"><defs><style>.cls-1{fill:#131e36;stroke-width:0px;}</style></defs><polygon class="cls-1" points="404.68 62.68 404.68 116.24 417 116.24 417 57.11 404.68 62.68"/><path class="cls-1" d="M384.27,100.04c0,5.17-3.28,8.1-9.14,8.1-2.93,0-4.31-1.12-4.31-3.1,0-1.64,1.12-2.85,4.48-4.22l8.96-3.71v2.93ZM400.21,116.24v-9.82h-2.5c-1.55,0-2.24-.6-2.24-2.5v-14.48c0-10.6-6.21-16.29-16.89-16.29-9.05,0-16.03,4.22-20.25,8.79l6.21,8.96c2.93-4.22,7.84-7.24,13.18-7.24,4.65,0,6.29,1.98,6.72,5.52l-12.93,4.83c-8.01,2.76-12.06,6.46-12.06,12.84,0,6.81,4.57,10.34,11.12,10.34,8.62,0,12.32-6.38,13.7-11.89v2.84c0,6.03,4.14,8.1,8.7,8.1h7.24Z"/><path class="cls-1" d="M356.74,114c-1.6-1.71-2.53-4.1-2.53-7.15,0-1.51.23-2.87.69-4.1-1.35,1.88-3.35,3.41-5.6,3.41-2.41,0-4.14-1.21-4.14-4.65v-18.1h8.94v-9.39h-8.94v-11.46l-12.32,6.46v5h-6.29v9.39h6.29v20.34c0,7.84,4.39,13.36,13.7,13.36,4.47,0,7.91-1.44,10.2-3.1"/><path class="cls-1" d="M295.78,95.13c0-7.76,3.62-11.72,9.05-11.72s7.93,3.19,8.96,8.45l10.26-5.95c-2.59-7.24-9.57-12.76-19.65-12.76-13.01,0-21.2,9.13-21.2,21.98s8.19,21.98,21.2,21.98c10.08,0,17.06-5.52,19.65-12.76l-10.26-5.95c-1.03,5.26-3.71,8.45-8.96,8.45s-9.05-3.96-9.05-11.72"/><path class="cls-1" d="M264.94,100.04c0,5.17-3.28,8.1-9.13,8.1-2.93,0-4.31-1.12-4.31-3.1,0-1.64,1.12-2.85,4.48-4.22l8.96-3.71v2.93ZM280.88,116.24v-9.82h-2.5c-1.55,0-2.24-.6-2.24-2.5v-14.48c0-10.6-6.21-16.29-16.89-16.29-5.81,0-10.76,1.75-14.69,4.2.98,1.69,1.5,3.84,1.5,6.4s-.48,5.02-1.08,6.84l.22.32c2.93-4.22,7.84-7.24,13.18-7.24,4.65,0,6.29,1.98,6.72,5.52l-12.93,4.83c-8.01,2.76-12.06,6.46-12.06,12.84,0,6.81,4.57,10.34,11.12,10.34,8.62,0,12.32-6.38,13.7-11.89v2.84c0,6.03,4.14,8.1,8.7,8.1h7.24Z"/><path class="cls-1" d="M238.87,93.58c1.03-1.64,2.41-5.26,2.41-9.82,0-6.64-3.45-10.6-9.65-10.6-8.1,0-12.24,7.07-13.62,14.13v-13.27l-12.32,6.26v35.96h12.32v-22.32c0-6.98,3.96-11.55,8.19-11.55,2.67,0,3.79,1.81,3.79,4.22s-1.46,5.43-3.02,6.98h11.89Z"/><path class="cls-1" d="M200,71.26l4.22-8.79c-1.98-1.72-4.68-4.15-10.24-4.83-12.27-1.5-16.67,6.76-16.9,21.6v1.03h-5.86v9.39h5.86v26.57h12.32v-26.57h10.6v-9.39h-10.6v-8.07c0-2.76,1.29-4.39,4.22-4.39,2.58,0,4.83,1.55,6.38,3.45"/><path class="cls-1" d="M112.84,76.87h27.22v-21h-27.22c-17.35,0-31.46,14.11-31.46,31.46v29.85h21v-29.85c0-5.77,4.69-10.46,10.46-10.46"/><path class="cls-1" d="M41.67,76.87h27.22v-21h-27.22c-17.35,0-31.46,14.11-31.46,31.46v29.85h21v-29.85c0-5.77,4.69-10.46,10.46-10.46"/><path class="cls-1" d="M41.67,29.79h27.22V8.79h-27.22c-17.35,0-31.46,14.11-31.46,31.46v6.48h21v-6.48c0-5.77,4.69-10.46,10.46-10.46"/></svg>
